rospo-icon-theme-classic-common/22x22/apps/christmas-tree.svg

<svg height="22" width="22" xmlns="http://www.w3.org/2000/svg"><path d="m11.090575 7.5021445a1.9324752 1.9466645 0 0 0 -1.7643391.971334l-2.5332895 4.4204255-2.5342325 4.420425a1.9324752 1.9466645 0 0 0  .5906285 2.585155s2.4344195 1.600516 6.1506576 1.600516c3.716238 0 6.150657-1.600516 6.150657-1.600516a1.9324752 1.9466645 0 0 0  .590629-2.585155l-2.534233-4.420425-2.533289-4.4204255a1.9324752 1.9466645 0 0 0 -1.583189-.971334z" opacity=".2"/><path d="m11.090575 7.0021445a1.9324752 1.9466645 0 0 0 -1.7643391.971334l-2.5332895 4.4204255-2.5342325 4.420425a1.9324752 1.9466645 0 0 0  .5906285 2.585155s2.4344195 1.600516 6.1506576 1.600516c3.716238 0 6.150657-1.600516 6.150657-1.600516a1.9324752 1.9466645 0 0 0  .590629-2.585155l-2.534233-4.420425-2.533289-4.4204255a1.9324752 1.9466645 0 0 0 -1.583189-.971334z" fill="#337f36"/><path d="m11.077636 5.501838a1.6564074 1.6685697 0 0 0 -1.5122911.832572l-2.171391 3.788936-2.1721995 3.788937a1.6564074 1.6685697 0 0 0  .506253 2.215847s2.0866455 1.37187 5.2719916 1.37187c3.185348 0 5.271993-1.37187 5.271993-1.37187a1.6564074 1.6685697 0 0 0  .506254-2.215847l-2.1722-3.788937-2.171391-3.788936a1.6564074 1.6685697 0 0 0 -1.357019-.832572z" opacity=".2"/><path d="m11.077636 5.001838a1.6564074 1.6685697 0 0 0 -1.5122911.832572l-2.171391 3.788936-2.1721995 3.788937a1.6564074 1.6685697 0 0 0  .506253 2.215847s2.0866455 1.37187 5.2719916 1.37187c3.185348 0 5.271993-1.37187 5.271993-1.37187a1.6564074 1.6685697 0 0 0  .506254-2.215847l-2.1722-3.788937-2.171391-3.788936a1.6564074 1.6685697 0 0 0 -1.357019-.832572z" fill="#3e9d43"/><path d="m11.064696 3.5015315a1.3803395 1.3904748 0 0 0 -1.2602421.69381l-1.8094925 3.1574465-1.810166 3.157448a1.3803395 1.3904748 0 0 0  .4218775 1.846539s1.738871 1.143225 4.3933261 1.143225c2.654457 0 4.393327-1.143225 4.393327-1.143225a1.3803395 1.3904748 0 0 0  .421878-1.846539l-1.810166-3.157448-1.809492-3.1574465a1.3803395 1.3904748 0 0 0 -1.13085-.69381z" opacity=".2"/><path d="m11.064696 3.0015315a1.3803395 1.3904748 0 0 0 -1.2602421.69381l-1.8094925 3.1574465-1.810166 3.157448a1.3803395 1.3904748 0 0 0  .4218775 1.846539s1.738871 1.143225 4.3933261 1.143225c2.654457 0 4.393327-1.143225 4.393327-1.143225a1.3803395 1.3904748 0 0 0  .421878-1.846539l-1.810166-3.157448-1.809492-3.1574465a1.3803395 1.3904748 0 0 0 -1.13085-.69381z" fill="#5dc062"/><path d="m9.9999999 11.5a1 1 0 0 1 -1 1 1 1 0 0 1 -1-1 1 1 0 0 1 1-1 1 1 0 0 1 1 1z" opacity=".2"/><path d="m10.999952 1.500091c-.360604.00534-.617775.230315-.738465.6027375l.0045-.016795-.5665901 1.4645345h-1.4108258c-.00415-.0000692-.00811-.0000692-.012275 0-.228172.00766-.4339125.1180012-.5788675.3007831-.3134935.372713-.247049.809042.1510415 1.0870065l1.0023443 1.1371165-.5829595 1.3753307c-.00065.00205-.00125.00415-.00185.00625-.089076.303075-.00534.615315.21875.828911.00155.0016.0035.00315.00522.0047.2692515.2479095.647566.2794185.951634.074219.0058-.0039.01154-.00792.01711-.01211l1.5412971-1.15274 1.54129 1.15274c.0056.00415.01132.00824.01711.01211.304068.205199.682383.17369.951634-.074219.0016-.00155.0035-.0031.0052-.0047.224061-.213596.307826-.525836.218749-.828911l-.0018-.00625-.582993-1.3753307 1.002327-1.137116c.39809-.277965.464535-.714294.15104-1.0870068-.144954-.182782-.350695-.2931232-.578867-.3007832-.0042-.0000691-.0081-.0000691-.01228 0h-1.410807l-.56659-1.4645344.0045.016795c-.120802-.3724227-.377973-.5973993-.738577-.6027377z" opacity=".2"/><path d="m10.999952.9996312c-.360604.00534-.617775.230315-.738465.6027375l.0045-.016795-.5665901 1.4645345h-1.4108258c-.00415-.0000692-.00811-.0000692-.012275 0-.228172.00766-.4339125.1180012-.5788675.3007831-.3134935.372713-.247049.809042.1510415 1.0870065l1.0023443 1.1371165-.5829595 1.3753307c-.00065.00205-.00125.00415-.00185.00625-.089076.303075-.00534.615315.21875.828911.00155.0016.0035.00315.00522.0047.2692515.2479095.647566.2794185.951634.074219.0058-.0039.01154-.00792.01711-.01211l1.5412971-1.15274 1.54129 1.15274c.0056.00415.01132.00824.01711.01211.304068.205199.682383.17369.951634-.074219.0016-.00155.0035-.0031.0052-.0047.224061-.213596.307826-.525836.218749-.828911l-.0018-.00625-.582993-1.3753307 1.002327-1.137116c.39809-.277965.464535-.714294.15104-1.0870068-.144954-.182782-.350695-.2931232-.578867-.3007832-.0042-.0000691-.0081-.0000691-.01228 0h-1.410807l-.56659-1.4645344.0045.016795c-.120802-.3724227-.377973-.5973993-.738577-.6027377z" fill="#ae3030"/><path d="m9.9999999 11a1 1 0 0 1 -1 1 1 1 0 0 1 -1-1 1 1 0 0 1 1-1 1 1 0 0 1 1 1z" fill="#ffe15e"/><path d="m15 14.5a1 1 0 0 1 -1 1 1 1 0 0 1 -1-1 1 1 0 0 1 1-1 1 1 0 0 1 1 1z" opacity=".2"/><path d="m15 14a1 1 0 0 1 -1 1 1 1 0 0 1 -1-1 1 1 0 0 1 1-1 1 1 0 0 1 1 1z" fill="#ffe15e"/><path d="m8.9999999 19.5a1 1 0 0 1 -1 1 1 1 0 0 1 -1-1 1 1 0 0 1 1-1 1 1 0 0 1 1 1z" opacity=".2"/><path d="m8.9999999 19a1 1 0 0 1 -1 1 1 1 0 0 1 -1-1 1 1 0 0 1 1-1 1 1 0 0 1 1 1z" fill="#ffe15e"/><path d="m13 11a .5.5 0 0 1 -.5.5.5.5 0 0 1 -.5-.5.5.5 0 0 1  .5-.5.5.5 0 0 1  .5.5z" opacity=".2"/><path d="m13 10.5a.5.5 0 0 1 -.5.5.5.5 0 0 1 -.5-.5.5.5 0 0 1  .5-.5.5.5 0 0 1  .5.5z" fill="#ffe15e"/><path d="m11 16a .5.5 0 0 1 -.5.5.5.5 0 0 1 -.5000001-.5.5.5 0 0 1  .5000001-.5.5.5 0 0 1  .5.5z" opacity=".2"/><path d="m11 15.5a.5.5 0 0 1 -.5.5.5.5 0 0 1 -.5000001-.5.5.5 0 0 1  .5000001-.5.5.5 0 0 1  .5.5z" fill="#ffe15e"/><path d="m14 19a .5.5 0 0 1 -.5.5.5.5 0 0 1 -.5-.5.5.5 0 0 1  .5-.5.5.5 0 0 1  .5.5z" opacity=".2"/><path d="m14 18.5a.5.5 0 0 1 -.5.5.5.5 0 0 1 -.5-.5.5.5 0 0 1  .5-.5.5.5 0 0 1  .5.5z" fill="#ffe15e"/><path d="m7.9999999 14a .5.5 0 0 1 -.5.5.5.5 0 0 1 -.5-.5.5.5 0 0 1  .5-.5.5.5 0 0 1  .5.5z" opacity=".2"/><path d="m7.9999999 13.5a.5.5 0 0 1 -.5.5.5.5 0 0 1 -.5-.5.5.5 0 0 1  .5-.5.5.5 0 0 1  .5.5z" fill="#ffe15e"/><path d="m17 18a .5.5 0 0 1 -.5.5.5.5 0 0 1 -.5-.5.5.5 0 0 1  .5-.5.5.5 0 0 1  .5.5z" opacity=".2"/><path d="m17 17.5a.5.5 0 0 1 -.5.5.5.5 0 0 1 -.5-.5.5.5 0 0 1  .5-.5.5.5 0 0 1  .5.5z" fill="#ffe15e"/><path d="m11 1c-.360604.00534-.617591.22914-.738281.6015625l.0039-.015625-.5664061 1.4648437h-1.4101565c-.00415-.0000692-.00951-.0000692-.013672 0-.228172.00766-.43317.1179994-.578125.3007813-.2004799.238351-.2285112.4981398-.1308594.7304687.032696-.078001.068046-.1557896.1308594-.2304687.144955-.1827819.349953-.2931213.578125-.3007813.00417-.0000692.00952-.0000692.013672 0h1.4101565l.5664061-1.4648437-.0039.017578c.12069-.3724224.377677-.5981755.738281-.6035155.360604.00534.617479.2310929.738281.6035156l-.0039-.017578.566406 1.4648437h1.410157c.0042-.0000691.0095-.0000691.01367 0 .228172.00766.433171.1179993.578125.3007813.06281.074679.09816.1524673.13086.2304687.09765-.232329.06962-.4921178-.13086-.7304687-.144954-.182782-.349953-.2931212-.578125-.3007813-.0042-.0000691-.0095-.0000691-.01367 0h-1.410157l-.566406-1.4648437.0039.015625c-.120802-.3724228-.377677-.5962242-.738281-.6015626zm-2.2929689 4.9140625-.4394531 1.0371094c-.00065.00205-.00135.00376-.00195.00586-.04839.1646441-.040593.3296524.00781.4824219l.5781244-1.3632819zm4.5859379 0-.144531.1621094.578124 1.3632812c.04841-.1527695.0562-.3177778.0078-.4824219l-.002-.00586-.439453-1.0371094z" fill="#fff" opacity=".2"/></svg>

<svg xmlns="http://www.w3.org/2000/svg" width="22" height="22" version="1">
 <path d="M 11.090575,7.5021445 A 1.9324752,1.9466645 0 0 0 9.3262359,8.4734785 L 6.7929464,12.893904 4.2587139,17.314329 a 1.9324752,1.9466645 0 0 0 0.5906285,2.585155 c 0,0 2.4344195,1.600516 6.1506576,1.600516 3.716238,0 6.150657,-1.600516 6.150657,-1.600516 a 1.9324752,1.9466645 0 0 0 0.590629,-2.585155 L 15.207053,12.893904 12.673764,8.4734785 a 1.9324752,1.9466645 0 0 0 -1.583189,-0.971334 z" style="opacity:0.2"/>
 <path style="fill:#337f36" d="M 11.090575,7.0021445 A 1.9324752,1.9466645 0 0 0 9.3262359,7.9734785 L 6.7929464,12.393904 4.2587139,16.814329 a 1.9324752,1.9466645 0 0 0 0.5906285,2.585155 C 4.8493424,19.399484 7.2837619,21 11,21 c 3.716238,0 6.150657,-1.600516 6.150657,-1.600516 a 1.9324752,1.9466645 0 0 0 0.590629,-2.585155 L 15.207053,12.393904 12.673764,7.9734785 a 1.9324752,1.9466645 0 0 0 -1.583189,-0.971334 z"/>
 <path style="opacity:0.2" d="M 11.077636,5.501838 A 1.6564074,1.6685697 0 0 0 9.5653449,6.33441 l -2.171391,3.788936 -2.1721995,3.788937 a 1.6564074,1.6685697 0 0 0 0.506253,2.215847 c 0,0 2.0866455,1.37187 5.2719916,1.37187 3.185348,0 5.271993,-1.37187 5.271993,-1.37187 a 1.6564074,1.6685697 0 0 0 0.506254,-2.215847 L 14.606046,10.123346 12.434655,6.33441 A 1.6564074,1.6685697 0 0 0 11.077636,5.501838 Z"/>
 <path d="M 11.077636,5.001838 A 1.6564074,1.6685697 0 0 0 9.5653449,5.83441 l -2.171391,3.788936 -2.1721995,3.788937 a 1.6564074,1.6685697 0 0 0 0.506253,2.215847 c 0,0 2.0866455,1.37187 5.2719916,1.37187 3.185348,0 5.271993,-1.37187 5.271993,-1.37187 a 1.6564074,1.6685697 0 0 0 0.506254,-2.215847 L 14.606046,9.623346 12.434655,5.83441 A 1.6564074,1.6685697 0 0 0 11.077636,5.001838 Z" style="fill:#3e9d43"/>
 <path d="m 11.064696,3.5015315 a 1.3803395,1.3904748 0 0 0 -1.2602421,0.69381 L 7.9949614,7.352788 6.1847954,10.510236 a 1.3803395,1.3904748 0 0 0 0.4218775,1.846539 c 0,0 1.738871,1.143225 4.3933261,1.143225 2.654457,0 4.393327,-1.143225 4.393327,-1.143225 a 1.3803395,1.3904748 0 0 0 0.421878,-1.846539 L 14.005038,7.352788 12.195546,4.1953415 a 1.3803395,1.3904748 0 0 0 -1.13085,-0.69381 z" style="opacity:0.2"/>
 <path style="fill:#5dc062" d="m 11.064696,3.0015315 a 1.3803395,1.3904748 0 0 0 -1.2602421,0.69381 L 7.9949614,6.852788 6.1847954,10.010236 a 1.3803395,1.3904748 0 0 0 0.4218775,1.846539 c 0,0 1.738871,1.143225 4.3933261,1.143225 2.654457,0 4.393327,-1.143225 4.393327,-1.143225 a 1.3803395,1.3904748 0 0 0 0.421878,-1.846539 L 14.005038,6.852788 12.195546,3.6953415 a 1.3803395,1.3904748 0 0 0 -1.13085,-0.69381 z"/>
 <path d="m 9.9999999,11.5 a 1,1 0 0 1 -1,1 1,1 0 0 1 -1,-1 1,1 0 0 1 1,-1 1,1 0 0 1 1,1 z" style="opacity:0.2"/>
 <path d="m 10.999952,1.500091 c -0.360604,0.00534 -0.617775,0.230315 -0.738465,0.6027375 l 0.0045,-0.016795 -0.5665901,1.4645345 -1.4108258,0 c -0.00415,-6.92e-5 -0.00811,-6.92e-5 -0.012275,0 -0.228172,0.00766 -0.4339125,0.1180012 -0.5788675,0.3007831 -0.3134935,0.372713 -0.247049,0.809042 0.1510415,1.0870065 L 8.8508144,6.0754741 8.2678549,7.4508048 c -6.5e-4,0.00205 -0.00125,0.00415 -0.00185,0.00625 -0.089076,0.303075 -0.00534,0.615315 0.21875,0.828911 0.00155,0.0016 0.0035,0.00315 0.00522,0.0047 0.2692515,0.2479095 0.647566,0.2794185 0.951634,0.074219 0.0058,-0.0039 0.01154,-0.00792 0.01711,-0.01211 l 1.5412971,-1.15274 1.54129,1.15274 c 0.0056,0.00415 0.01132,0.00824 0.01711,0.01211 0.304068,0.205199 0.682383,0.17369 0.951634,-0.074219 0.0016,-0.00155 0.0035,-0.0031 0.0052,-0.0047 0.224061,-0.213596 0.307826,-0.525836 0.218749,-0.828911 l -0.0018,-0.00625 -0.582993,-1.3753307 1.002327,-1.137116 c 0.39809,-0.277965 0.464535,-0.714294 0.15104,-1.0870068 -0.144954,-0.182782 -0.350695,-0.2931232 -0.578867,-0.3007832 -0.0042,-6.91e-5 -0.0081,-6.91e-5 -0.01228,0 l -1.410807,0 -0.56659,-1.4645344 0.0045,0.016795 C 11.617727,1.730406 11.360556,1.5054294 10.999952,1.500091 Z" style="opacity:0.2"/>
 <path style="fill:#ae3030" d="m 10.999952,0.9996312 c -0.360604,0.00534 -0.617775,0.230315 -0.738465,0.6027375 l 0.0045,-0.016795 -0.5665901,1.4645345 -1.4108258,0 c -0.00415,-6.92e-5 -0.00811,-6.92e-5 -0.012275,0 -0.228172,0.00766 -0.4339125,0.1180012 -0.5788675,0.3007831 -0.3134935,0.372713 -0.247049,0.809042 0.1510415,1.0870065 L 8.8508144,5.5750143 8.2678549,6.950345 c -6.5e-4,0.00205 -0.00125,0.00415 -0.00185,0.00625 -0.089076,0.303075 -0.00534,0.615315 0.21875,0.828911 0.00155,0.0016 0.0035,0.00315 0.00522,0.0047 0.2692515,0.2479095 0.647566,0.2794185 0.951634,0.074219 0.0058,-0.0039 0.01154,-0.00792 0.01711,-0.01211 l 1.5412971,-1.15274 1.54129,1.15274 c 0.0056,0.00415 0.01132,0.00824 0.01711,0.01211 0.304068,0.205199 0.682383,0.17369 0.951634,-0.074219 0.0016,-0.00155 0.0035,-0.0031 0.0052,-0.0047 0.224061,-0.213596 0.307826,-0.525836 0.218749,-0.828911 l -0.0018,-0.00625 -0.582993,-1.3753307 1.002327,-1.137116 c 0.39809,-0.277965 0.464535,-0.714294 0.15104,-1.0870068 -0.144954,-0.182782 -0.350695,-0.2931232 -0.578867,-0.3007832 -0.0042,-6.91e-5 -0.0081,-6.91e-5 -0.01228,0 l -1.410807,0 -0.56659,-1.4645344 0.0045,0.016795 C 11.617727,1.2299462 11.360556,1.0049696 10.999952,0.9996312 Z"/>
 <path style="fill:#ffe15e" d="m 9.9999999,11 a 1,1 0 0 1 -1,1 1,1 0 0 1 -1,-1 1,1 0 0 1 1,-1 1,1 0 0 1 1,1 z"/>
 <path style="opacity:0.2" d="m 15,14.5 a 1,1 0 0 1 -1,1 1,1 0 0 1 -1,-1 1,1 0 0 1 1,-1 1,1 0 0 1 1,1 z"/>
 <path d="m 15,14 a 1,1 0 0 1 -1,1 1,1 0 0 1 -1,-1 1,1 0 0 1 1,-1 1,1 0 0 1 1,1 z" style="fill:#ffe15e"/>
 <path d="m 8.9999999,19.5 a 1,1 0 0 1 -1,1 1,1 0 0 1 -1,-1 1,1 0 0 1 1,-1 1,1 0 0 1 1,1 z" style="opacity:0.2"/>
 <path style="fill:#ffe15e" d="m 8.9999999,19 a 1,1 0 0 1 -1,1 1,1 0 0 1 -1,-1 1,1 0 0 1 1,-1 1,1 0 0 1 1,1 z"/>
 <path style="opacity:0.2" d="M 13,11 A 0.5,0.5 0 0 1 12.5,11.5 0.5,0.5 0 0 1 12,11 0.5,0.5 0 0 1 12.5,10.5 0.5,0.5 0 0 1 13,11 Z"/>
 <path d="M 13,10.5 A 0.5,0.5 0 0 1 12.5,11 0.5,0.5 0 0 1 12,10.5 0.5,0.5 0 0 1 12.5,10 0.5,0.5 0 0 1 13,10.5 Z" style="fill:#ffe15e"/>
 <path d="M 11,16 A 0.5,0.5 0 0 1 10.5,16.5 0.5,0.5 0 0 1 9.9999999,16 0.5,0.5 0 0 1 10.5,15.5 0.5,0.5 0 0 1 11,16 Z" style="opacity:0.2"/>
 <path style="fill:#ffe15e" d="M 11,15.5 A 0.5,0.5 0 0 1 10.5,16 0.5,0.5 0 0 1 9.9999999,15.5 0.5,0.5 0 0 1 10.5,15 0.5,0.5 0 0 1 11,15.5 Z"/>
 <path style="opacity:0.2" d="M 14,19 A 0.5,0.5 0 0 1 13.5,19.5 0.5,0.5 0 0 1 13,19 0.5,0.5 0 0 1 13.5,18.5 0.5,0.5 0 0 1 14,19 Z"/>
 <path d="M 14,18.5 A 0.5,0.5 0 0 1 13.5,19 0.5,0.5 0 0 1 13,18.5 0.5,0.5 0 0 1 13.5,18 0.5,0.5 0 0 1 14,18.5 Z" style="fill:#ffe15e"/>
 <path style="opacity:0.2" d="m 7.9999999,14 a 0.5,0.5 0 0 1 -0.5,0.5 0.5,0.5 0 0 1 -0.5,-0.5 0.5,0.5 0 0 1 0.5,-0.5 0.5,0.5 0 0 1 0.5,0.5 z"/>
 <path d="m 7.9999999,13.5 a 0.5,0.5 0 0 1 -0.5,0.5 0.5,0.5 0 0 1 -0.5,-0.5 0.5,0.5 0 0 1 0.5,-0.5 0.5,0.5 0 0 1 0.5,0.5 z" style="fill:#ffe15e"/>
 <path d="M 17,18 A 0.5,0.5 0 0 1 16.5,18.5 0.5,0.5 0 0 1 16,18 0.5,0.5 0 0 1 16.5,17.5 0.5,0.5 0 0 1 17,18 Z" style="opacity:0.2"/>
 <path style="fill:#ffe15e" d="M 17,17.5 A 0.5,0.5 0 0 1 16.5,18 0.5,0.5 0 0 1 16,17.5 0.5,0.5 0 0 1 16.5,17 0.5,0.5 0 0 1 17,17.5 Z"/>
 <path style="opacity:0.2;fill:#ffffff" d="m 11,1 c -0.360604,0.00534 -0.617591,0.22914 -0.738281,0.6015625 l 0.0039,-0.015625 -0.5664061,1.4648437 -1.4101565,0 c -0.00415,-6.92e-5 -0.00951,-6.92e-5 -0.013672,0 -0.228172,0.00766 -0.43317,0.1179994 -0.578125,0.3007813 C 7.4967795,3.5899135 7.4687482,3.8497023 7.5664,4.0820312 7.599096,4.0040302 7.634446,3.9262416 7.6972594,3.8515625 c 0.144955,-0.1827819 0.349953,-0.2931213 0.578125,-0.3007813 0.00417,-6.92e-5 0.00952,-6.92e-5 0.013672,0 l 1.4101565,0 0.5664061,-1.4648437 -0.0039,0.017578 C 10.382409,1.7310931 10.639396,1.50534 11,1.5 c 0.360604,0.00534 0.617479,0.2310929 0.738281,0.6035156 l -0.0039,-0.017578 0.566406,1.4648437 1.410157,0 c 0.0042,-6.91e-5 0.0095,-6.91e-5 0.01367,0 0.228172,0.00766 0.433171,0.1179993 0.578125,0.3007813 0.06281,0.074679 0.09816,0.1524673 0.13086,0.2304687 0.09765,-0.232329 0.06962,-0.4921178 -0.13086,-0.7304687 -0.144954,-0.182782 -0.349953,-0.2931212 -0.578125,-0.3007813 -0.0042,-6.91e-5 -0.0095,-6.91e-5 -0.01367,0 l -1.410157,0 -0.566406,-1.4648437 0.0039,0.015625 C 11.617479,1.2291398 11.360604,1.0053384 11,1 Z M 8.7070311,5.9140625 8.267578,6.9511719 c -6.5e-4,0.00205 -0.00135,0.00376 -0.00195,0.00586 -0.04839,0.1646441 -0.040593,0.3296524 0.00781,0.4824219 L 8.8515624,6.0761719 8.7070311,5.9140625 Z m 4.5859379,0 -0.144531,0.1621094 0.578124,1.3632812 c 0.04841,-0.1527695 0.0562,-0.3177778 0.0078,-0.4824219 l -0.002,-0.00586 -0.439453,-1.0371094 z"/>
</svg>
